svg/justvector/plurk.svg

<svg xmlns="http://www.w3.org/2000/svg" viewBox="0 0 100 100" enable-background="new 0 0 100 100"><path d="m65.777 5.5h-32.34-11.415-11.415v90h22.83v-24.89h55.17v-3.778-18.871-42.46h-4.76-18.07m0 42.46h-32.34v-19.812h32.34v19.812"/></svg>

<?xml version="1.0" encoding="iso-8859-1"?>
<!-- Generator: Adobe Illustrator 15.0.0, SVG Export Plug-In . SVG Version: 6.00 Build 0)  -->
<!DOCTYPE svg PUBLIC "-//W3C//DTD SVG 1.1//EN" "http://www.w3.org/Graphics/SVG/1.1/DTD/svg11.dtd">
<svg version="1.1" id="Layer_1" xmlns="http://www.w3.org/2000/svg" xmlns:xlink="http://www.w3.org/1999/xlink" x="0px" y="0px"
	 width="100px" height="100px" viewBox="0 0 100 100" style="enable-background:new 0 0 100 100;" xml:space="preserve">
<path id="Plurk" d="M65.777,5.5H33.439H22.024H10.609v90h22.83V70.61h55.17v-3.778V47.961V5.5h-4.76H65.777z M65.777,47.961H33.439
	V28.149h32.338V47.961z"/>
</svg>
